X:1
T:Title
%%score { 1 | 2 }
L:1/8
M:4/4
K:Eb
V:1 treble nm="Grand Piano"
V:2 bass 
V:1
 z4 z2[Q:1/4=100] [EG][FA] | [GB]2 [GB][GB] [GB]2 [_G=A][=GB] | [Ac]4 [GB]2 EF | %3
 G2 G[B,FA] [EGB]2 [B,EG][G,E] | [B,DF]6 [B,EG][B,FA] | [GB]2 [GB][GB] [GB]2 [_G=A][=GB] | %6
[M:3/4] [Ac]4 [GB]2 |[M:1/4] E[EF] |[M:4/4] [EG]2 [EB][EB] [EG] [EG]2 [DF] |[M:3/4] E6 | %10
[M:1/4] [GB][GB] |[M:4/4] [Ge]2 [Ge][Ge] e2 dc | [GB]4 [EG]2 [GB][GB] | %13
 [Ge]2 [Ge][Ge] [Fd] [Fd]2 [EFc] | [DFB]6 [B,EG]2 | [GB][GB][GB][GB] [GB]2 [_G=A][=GB] | %16
[M:7/8] c- c3 e3 |[M:1/4] E[EF] |[M:4/4] [EG]2 [EB][EB] [EG] [EG]2 [DF] |[M:7/4] E6 z2 z2 z4 |] %20
V:2
 z4 z2 [E,B,][E,B,] | [E,E]2 [E,E][E,E] [E,E]2 [E,E][E,E] | [E,E]4 [E,E]2 [E,G,][A,E] | %3
 [E,B,E]2 [E,B,E]E, E,2 E,E, | B,,6 E,E, | [E,E]2 [E,E][E,E] [E,E]2 [E,E][E,E] | %6
[M:3/4] [E,E]4 [E,E]2 |[M:1/4] [C,=A,][=B,,A,] | %8
[M:4/4] [B,,B,]2 [B,,G,][B,,G,] [B,,B,] [B,,B,]2 [B,,A,] |[M:3/4] [E,G,]6 |[M:1/4] [E,E][E,E] | %11
[M:4/4] [E,B,]2 [E,B,][E,B,][K:treble] [A,CA]2 [A,DA][A,EA] | [E,E]4 [E,B,]2 [E,E][E,E] | %13
 [E,B,]2 [E,B,][E,B,] .[F,B,][F,B,] z F, | B,,6 E,2 | [E,E][E,E][E,E][E,E] [E,E]2 [E,E][E,E] | %16
[M:7/8][K:treble] [A,EA]- [A,EA]3 [A,CA]3 |[M:1/4][K:bass] [C,=A,][=B,,A,] | %18
[M:4/4] [B,,B,]2 [B,,G,][B,,G,] [B,,B,] [B,,B,]2 [B,,A,] |[M:7/4] [E,G,]6 z2 z2 z4 |] %20

